libs/ui/packages/crypto-icons/src/svg/PUNGO.svg

<svg width="24" height="24" viewBox="0 0 24 24" fill="none">
<path d="M11.4168 20.1396C12.0746 20.1771 12.8553 20.1381 13.4163 20.0384C14.6336 19.8284 15.8823 19.2846 16.9068 18.5181C17.3666 18.1724 18.1548 17.3841 18.4968 16.9281C19.2678 15.8991 19.7756 14.7479 20.0381 13.4256C20.1348 12.9254 20.1476 11.2004 20.0606 10.6881C19.5783 7.97688 17.9231 5.76963 15.4968 4.60488C15.4329 4.57427 15.3686 4.54427 15.3041 4.51488L15.6191 5.63388C15.7991 6.25563 16.1666 7.56513 16.4426 8.53713C17.1738 11.1081 17.1656 11.0646 17.1918 11.7171C17.2046 12.0584 17.1963 12.4394 17.1656 12.6719C16.8543 15.0059 15.0018 16.8539 12.6581 17.1696C12.1811 17.2349 11.3756 17.2049 10.9248 17.1081C10.7583 17.0684 10.6136 17.0466 10.6001 17.0556C10.5873 17.0729 11.3096 19.6791 11.4236 20.0294C11.4476 20.1014 11.4558 20.1299 11.4161 20.1396H11.4168ZM8.73183 19.4849C8.72664 19.4811 8.72164 19.4771 8.71683 19.4729C8.69058 19.4429 8.48958 18.8031 8.27433 18.0456C8.06058 17.2881 7.66158 15.8856 7.39458 14.9361C7.12308 13.9859 6.87708 13.0574 6.84258 12.8774C6.77283 12.4836 6.76383 11.5634 6.82983 11.1696C6.91231 10.6848 7.05963 10.2134 7.26783 9.76788C7.99908 8.23488 9.28683 7.22313 10.9856 6.85113C11.4453 6.75063 12.5096 6.75063 12.9738 6.85113C13.1621 6.89538 13.3338 6.91263 13.3511 6.89088C13.3683 6.87288 13.1883 6.17688 12.9521 5.34438C12.806 4.84539 12.668 4.34407 12.5381 3.84063C12.3781 3.83865 12.2181 3.8379 12.0581 3.83838C11.0823 3.83388 10.8326 3.86013 10.0788 4.03488C8.44983 4.41588 6.87333 5.38863 5.78283 6.67188C3.97383 8.80038 3.36558 11.7044 4.17108 14.3444C4.46433 15.3171 4.82808 16.0311 5.43708 16.8584C6.28923 18.0045 7.42457 18.9096 8.73183 19.4849ZM10.6616 20.9136C10.4253 20.8791 10.1973 20.8394 10.1583 20.8221C10.0193 20.781 9.87901 20.7444 9.73758 20.7126C8.34483 20.3751 6.86508 19.5479 5.75658 18.4874C4.91133 17.6774 4.06608 16.4511 3.71133 15.5271C3.66333 15.4086 3.60633 15.2684 3.58383 15.2204C3.46608 14.9706 3.25608 14.2394 3.13758 13.6484C3.01008 13.0311 3.00183 12.9209 3.00183 12.0231C3.00183 11.4719 3.02433 10.9461 3.04983 10.7969C3.08058 10.6529 3.13758 10.3326 3.18558 10.0919C3.22983 9.84663 3.29508 9.60138 3.32583 9.54438C3.34641 9.51213 3.36137 9.47663 3.37008 9.43938C3.34758 9.43938 3.54933 8.78688 3.58458 8.73888C3.60183 8.71638 3.65433 8.59863 3.69783 8.47638C3.77283 8.27013 4.01808 7.77138 4.11033 7.62138C4.13583 7.58688 4.24983 7.39413 4.36833 7.19688C4.49058 6.99588 4.60908 6.80688 4.63083 6.78138C4.65708 6.75063 4.80183 6.56688 4.95108 6.37413C6.25608 4.71363 8.23983 3.51363 10.3286 3.12438C10.9466 3.00588 13.0526 3.01038 13.6788 3.12888C14.6823 3.31638 15.7511 3.73263 16.6571 4.28463C17.0951 4.55613 17.1258 4.57413 17.6208 4.96788C18.0408 5.30088 18.7376 6.00138 19.0398 6.39588C19.1583 6.55338 19.3068 6.74163 19.3683 6.81588C19.4298 6.89538 19.4823 6.96963 19.4823 6.98688C19.4823 7.00938 19.5303 7.08363 19.5873 7.15788C19.6443 7.23288 19.7801 7.47288 19.8941 7.68738C20.0036 7.90638 20.1131 8.10363 20.1303 8.12538C20.1476 8.15163 20.2308 8.33163 20.3103 8.53263C20.9013 10.0266 21.1068 11.4501 20.9448 12.9876C20.8788 13.6476 20.5811 14.8176 20.3538 15.3171C20.3096 15.4221 20.2706 15.5181 20.2706 15.5316C20.2706 15.5706 19.8941 16.3244 19.7801 16.5126C18.8561 18.0456 17.5466 19.2801 16.0661 20.0159C15.8118 20.1434 15.5711 20.2611 15.5276 20.2836C15.2336 20.4366 14.2661 20.7299 13.5476 20.8791C13.1013 20.9706 11.2308 20.9931 10.6616 20.9136ZM12.6281 14.6511C13.5783 14.4104 14.4018 13.6004 14.6381 12.6764C14.7258 12.3299 14.7303 11.6601 14.6426 11.3226C14.2788 9.88638 12.7856 8.97063 11.3801 9.32538C10.8018 9.47013 10.4951 9.64038 10.0878 10.0484C9.50583 10.6311 9.26433 11.2086 9.26883 12.0231C9.27333 13.2629 10.0788 14.3099 11.2878 14.6331C11.6516 14.7306 12.2823 14.7381 12.6281 14.6511Z" fill="#22B573"/>
</svg>

<svg width="24" height="24" viewBox="0 0 24 24" fill="none"><path fill="#22b573" d="M11.417 20.14a9.4 9.4 0 0 0 2-.102 8.34 8.34 0 0 0 3.49-1.52c.46-.346 1.248-1.134 1.59-1.59a8.5 8.5 0 0 0 1.541-3.502c.097-.5.11-2.226.023-2.738-.483-2.711-2.138-4.918-4.564-6.083l-.193-.09.315 1.119c.18.622.548 1.931.824 2.903.73 2.571.723 2.528.749 3.18.013.341.004.722-.026.955a5.256 5.256 0 0 1-4.508 4.498c-.477.065-1.282.035-1.733-.062-.167-.04-.311-.061-.325-.052-.013.017.71 2.623.824 2.973.024.072.032.1-.008.11m-2.685-.655-.015-.012c-.026-.03-.227-.67-.443-1.427-.213-.758-.612-2.16-.88-3.11-.27-.95-.517-1.879-.551-2.059-.07-.393-.08-1.314-.013-1.707.082-.485.23-.957.438-1.402.731-1.533 2.019-2.545 3.718-2.917.46-.1 1.524-.1 1.988 0 .188.044.36.062.377.04.017-.018-.163-.714-.399-1.547q-.219-.748-.414-1.503l-.48-.003c-.976-.004-1.225.022-1.98.197-1.628.38-3.205 1.354-4.295 2.637-1.81 2.128-2.417 5.032-1.612 7.672.293.973.657 1.687 1.266 2.514a8.24 8.24 0 0 0 3.295 2.627m1.93 1.429a4 4 0 0 1-.504-.092 7 7 0 0 0-.42-.11c-1.393-.337-2.873-1.164-3.981-2.225-.846-.81-1.69-2.036-2.046-2.96a10 10 0 0 0-.127-.307c-.118-.25-.328-.98-.446-1.572-.128-.617-.136-.727-.136-1.625 0-.551.022-1.077.048-1.226.03-.144.088-.464.136-.705.044-.245.11-.49.14-.548a.3.3 0 0 0 .044-.105c-.022 0 .18-.652.215-.7.017-.023.07-.14.113-.263.075-.206.32-.705.412-.855.026-.034.14-.227.258-.424.123-.201.241-.39.263-.416.026-.03.17-.214.32-.407 1.305-1.66 3.289-2.86 5.378-3.25.618-.118 2.724-.114 3.35.005a9.1 9.1 0 0 1 2.978 1.156c.438.271.469.29.964.683.42.333 1.117 1.033 1.419 1.428.118.157.267.346.328.42.062.08.114.154.114.17 0 .023.048.098.105.172a6 6 0 0 1 .307.53c.11.218.22.416.236.437.018.027.1.207.18.408.591 1.494.797 2.917.635 4.455-.066.66-.364 1.83-.591 2.33a2 2 0 0 0-.083.214c0 .039-.377.792-.49.98-.925 1.534-2.234 2.768-3.715 3.504-.254.127-.495.245-.538.268-.294.153-1.262.446-1.98.595-.447.092-2.317.114-2.886.035m1.966-6.263c.95-.24 1.774-1.05 2.01-1.975.088-.346.092-1.016.005-1.353-.364-1.437-1.857-2.352-3.263-1.998-.578.145-.885.315-1.292.723-.582.583-.824 1.16-.82 1.975a2.68 2.68 0 0 0 2.02 2.61c.364.098.994.105 1.34.018"/></svg>
